X: 1985
T: Yenilendi Derdim Neden Bilemem
C: Ârif Sâmi Toker
O: Turkey
F: http://compmusic.upf.edu/node/140
N: muhayyer--sarki--nimsofyan--yenilendi_derdim--arif_sami_toker
N: makam= muhayyer
N: form= sarki
N: usul= nimsofyan = 2/4
M: 2/4
L: 1/16
K: C _2/4B ^3/4f  
Q: 1/4=90
%%MIDI tuningsystem comma53
d2Bc d2d2  | d_3/4eed cBc2  | z2Bc d2d2  | \
w:  ARANAĞME  |   |   | 
d_3/4eed c2Bc  | 
w:   | 
zg2g g2g2  | gf_7/8ed edc2  | Bcd2 z4  | \
w:   |   |   | 
_7/8edcB cBcB  | 
w:   | 
dcBA BABA  | AcBc BA3  | A3/2c/BA GABc  | 
w:   |   |   | 
d2Bc d2d2  | d_3/4eed cBc2  | z2Bc d2d2  | \
w:  ARANAĞME  |   |   | 
d_3/4eed c2Bc  | 
w:   | 
zg2g g2g2  | gf_7/8ed edc2  | Bcd2 z4  | \
w:   |   |   | 
_7/8edcB cBcB  | 
w:   | 
dcBA BABA  | AcBc BA3  | A3g fga/_1/4b/a/c/  | 
w:   |   |   | 
a2fg a2a2  | a2a2 aa3  | ac'c'_1/4b aga2  | \
w:  *  Ye ni len di   |  der dim  ne den   |  bi le *  *  mem    | 
gfga gfed  | 
w:  bi le *  *  mem    | 
a2fg a2a2  | a2a2 aa3  | ac'c'_1/4b aga2  | \
w:  *  Ye ni len di   |  der dim  ne den   |  bi le *  *  mem    | 
gfga gfed  | 
w:  bi le *  *  mem    | 
z2gg g2g2  | gf_7/8ed edc2  | _7/8edcB c4  | \
w:  Ya man dır  has  |  ret_ *  i *  le  *  ha  |  lim  *  gö *  nül    | 
defg fga2  | 
w:  SAZ  | 
zf2g a2a2  | _1/4e2ed _7/8edc2  | _7/8edcB c4  | c'8  | c'8  | \
w:  Ağ la yıp  da   |  göz ya *  şı *  mı   |  si *  le *  mem    |  hey   |   | 
c'2_ba gf_7/8ed  | 
w:  hey   | 
_7/8edcB c4  | dd2d de2c  | c2cB d2BA  | \
w:   |  Ne dir  *  se nin   |  âh_ ü  *  zâ  | 
BA2A A2G/A/B/c/  | 
w:  rın  *  gö nül   SAZ  | 
d2Bc dd3  | d_7/8eed cBc2  | z2B2 cdd2  | \
w:  *  Gi di yo rum   |  si zin  *  *  ol *  sun    |  Yâr  has re ti   | 
d_7/8eed cBc2  | 
w:  bi ze  *  *  kal *  sın    | 
zg2g g2g2  | gf_7/8ed edc2  | Bcd2 z4  | \
w:  Ağ la yıp  da   |  göz *  ya *  şı *  mı   |  si le mem    | 
_7/8edcB cBcB  | 
w:  si le mem    | 
dcBA BABA  | AcBc BA3  | A4 z4  | d2Bc dd3  | 
w:  si le mem    |  ya ra *  *  lı  gö  |  nül    |  *  Gi di yo rum   | 
d_7/8eed cBc2  | z2B2 cdd2  | d_7/8eed cBc2  | \
w:  si zin  *  *  ol *  sun    |  Yâr  has re ti   |  bi ze  *  *  kal *  sın    | 
zg2g g2g2  | 
w:  Ağ la yıp  da   | 
gf_7/8ed edc2  | Bcd2 z4  | _7/8edcB cBcB  | \
w:  göz *  ya *  şı *  mı   |  si le mem    |  si le mem    | 
dcBA BABA  | 
w:  si le mem    | 
AcBc BA3  | A4 z4  | |


